X:498
T:Slaughterhouse. (p)1702.PLFD1.498
M:6/4
L:1/4
Q:3/4=90
S:Playford, Dancing Master,Supp.to 11th Ed.,1702.
O:England;London
Z:Chris Partington.
K:C
G2dBdB|c/d/ecd2G|c>BAGEA|D3D2G|
C2cBdB|c/d/ecd2B|c/B/AG^F/G/AF|G3-G2:|
|:g|e/f/f>e/2f/4g2c|f2ga>gf|a>bage2|d3-d2c|
BgfecB|AfedBG|A/B/cAB/c/dB|c3-c2:|
